X:1
T:Kensington, 10.10.10.10
T:Kensington, 10.10.10.10
T:William Daylrymple MacLagan (1826-1910)
T:Public Domain Courtesy of the Cyber Hymnal™
C:William Daylrymple MacLagan (1826-1910)
Z:Public Domain
Z:Courtesy of the Cyber Hymnal™
%%score ( 1 2 ) ( 3 4 )
L:1/8
Q:1/4=115
M:4/4
K:Eb
V:1 treble 
V:2 treble 
V:3 bass 
V:4 bass 
V:1
 [EG]4 [E^F]2 [EG]2 | [EB]2 [EA]2 [EG]2 [CF]2 | [B,E]4 [DF]4 | [EG]8 | [EA]4 [EA]2 [EG]2 | %5
 c4 [B,B]4 | [FB]2 [FA]2 [EA]2 [EG]2 | ([EG]4 [DF]4) | [B,G]4 [D=A]2 [DA]2 | %9
 [DB]2 [DB]2 [EB]2 [E=A]2 | [DG]4 [D^F]4 | [DG]8 | [DB]4 [=Ec]2 [GB]2 | [FB]2 [FA]2 [CG]2 [CF]2 | %14
 [B,E]4 [DF]4 | E8 |] %16
V:2
 x8 | x8 | x8 | x8 | x8 | E2 F2 x4 | x8 | x8 | x8 | x8 | x8 | x8 | x8 | x8 | x8 | E8 |] %16
V:3
 [E,B,]4 [E,=A,]2 [E,B,]2 | [A,,_D]2 [F,,C]2 [G,,B,]2 [A,,A,]2 | [B,,G,]4 [B,,B,]4 | [E,B,]8 | %4
 [C,A,]4 [C,A,]2 [B,,B,]2 | (C2 D2) E4 | [F,C]2 [D,B,]2 [E,B,]2 B,2 | [B,,B,]8 | %8
 [E,G,]4 [D,^F,]2 [D,F,]2 | G,2 G,2 [C,G,]2 [C,=A,]2 | [D,B,]4 [D,C]4 | [G,,B,]8 | %12
 G,4 [C,G,]2 [=E,C]2 | [F,C]2 [F,C]2 [A,,B,]2 [A,,A,]2 | [B,,G,]4 [B,,A,]4 | [E,G,]8 |] %16
V:4
 x8 | x8 | x8 | x8 | x8 | A,,4 (G,,2 G,2) | x6 (G,,A,,) | x8 | x8 | G,2 G,2 x4 | x8 | x8 | G,4 x4 | %13
 x8 | x8 | x8 |] %16

